;FLAVOR:UltiGCode
;TIME:1926
;MATERIAL:2858
;MATERIAL2:0
;NOZZLE_DIAMETER:0.4
;Generated with Cura_SteamEngine 2.6.2

;LAYER_COUNT:198
;LAYER:0
M107
G0 F3600 X100.58 Y91.422 Z0.3
;TYPE:SKIRT
G1 F1800 X101.123 Y90.849 E0.09473
G1 X101.722 Y90.334 E0.18952
G1 X102.37 Y89.883 E0.28426
G1 X103.061 Y89.499 E0.37913
G1 X103.786 Y89.187 E0.47384
G1 X104.539 Y88.95 E0.56857
G1 X105.313 Y88.791 E0.66339
G1 X106.098 Y88.71 E0.75809
G1 X106.5 Y88.7 E0.80635
G1 X116.5 Y88.7 E2.00635
G1 X117.289 Y88.74 E2.10115
G1 X118.069 Y88.859 E2.19583
G1 X118.834 Y89.057 E2.29066
G1 X119.574 Y89.331 E2.38535
G1 X120.283 Y89.679 E2.48012
G1 X120.954 Y90.097 E2.57499
G1 X121.578 Y90.58 E2.66968
G1 X122.151 Y91.123 E2.76441
G1 X122.666 Y91.722 E2.8592
G1 X123.117 Y92.37 E2.95394
G1 X123.501 Y93.061 E3.04881
G1 X123.813 Y93.786 E3.14352
G1 X124.05 Y94.539 E3.23825
G1 X124.209 Y95.313 E3.33307
G1 X124.29 Y96.098 E3.42777
G1 X124.3 Y96.5 E3.47603
G1 X124.3 Y126.5 E7.07603
G1 X124.26 Y127.289 E7.17083
G1 X124.141 Y128.069 E7.26551
G1 X123.943 Y128.834 E7.36034
G1 X123.669 Y129.574 E7.45503
G1 X123.321 Y130.283 E7.5498
G1 X122.903 Y130.954 E7.64467
G1 X122.42 Y131.578 E7.73936
G1 X121.877 Y132.151 E7.83409
G1 X121.278 Y132.666 E7.92888
G1 X120.63 Y133.117 E8.02362
G1 X119.939 Y133.501 E8.11849
G1 X119.214 Y133.813 E8.2132
G1 X118.461 Y134.05 E8.30793
G1 X117.687 Y134.209 E8.40275
G1 X116.902 Y134.29 E8.49745
G1 X116.5 Y134.3 E8.54571
G1 X106.5 Y134.3 E9.74571
G1 X105.711 Y134.26 E9.84051
G1 X104.931 Y134.141 E9.93519
G1 X104.166 Y133.943 E10.03002
G1 X103.426 Y133.669 E10.12471
G1 X102.717 Y133.321 E10.21948
G1 X102.046 Y132.903 E10.31435
G1 X101.422 Y132.42 E10.40904
G1 X100.849 Y131.877 E10.50377
G1 X100.334 Y131.278 E10.59856
G1 X99.883 Y130.63 E10.6933
G1 X99.499 Y129.939 E10.78817
G1 X99.187 Y129.214 E10.88288
G1 X98.95 Y128.461 E10.97761
G1 X98.791 Y127.687 E11.07243
G1 X98.71 Y126.902 E11.16713
G1 X98.7 Y126.5 E11.21539
G1 X98.7 Y96.5 E14.81539
G1 X98.74 Y95.711 E14.91019
G1 X98.859 Y94.931 E15.00487
G1 X99.057 Y94.166 E15.0997
G1 X99.331 Y93.426 E15.19439
G1 X99.679 Y92.717 E15.28916
G1 X100.097 Y92.046 E15.38403
G1 X100.58 Y91.422 E15.47872
G0 F3600 X100.975 Y91.577
G1 F1800 X101.516 Y91.03 E15.57104
G1 X102.111 Y90.542 E15.66339
G1 X102.753 Y90.119 E15.75564
G1 X103.436 Y89.764 E15.84801
G1 X104.151 Y89.483 E15.9402
G1 X104.893 Y89.277 E16.03261
G1 X105.651 Y89.149 E16.12486
G1 X106.5 Y89.1 E16.22691
G1 X116.5 Y89.1 E17.42691
G1 X117.268 Y89.14 E17.51919
G1 X118.028 Y89.259 E17.6115
G1 X118.771 Y89.457 E17.70378
G1 X119.49 Y89.731 E17.79611
G1 X120.176 Y90.078 E17.88836
G1 X120.823 Y90.494 E17.98066
G1 X121.423 Y90.975 E18.07294
G1 X121.97 Y91.516 E18.16527
G1 X122.458 Y92.111 E18.25761
G1 X122.881 Y92.753 E18.34987
G1 X123.236 Y93.436 E18.44224
G1 X123.517 Y94.151 E18.53443
G1 X123.723 Y94.893 E18.62683
G1 X123.851 Y95.651 E18.71908
G1 X123.9 Y96.5 E18.82113
G1 X123.9 Y126.5 E22.42113
G1 X123.86 Y127.268 E22.51342
G1 X123.741 Y128.028 E22.60573
G1 X123.543 Y128.771 E22.698
G1 X123.269 Y129.49 E22.79033
G1 X122.922 Y130.176 E22.88258
G1 X122.506 Y130.823 E22.97489
G1 X122.025 Y131.423 E23.06717
G1 X121.484 Y131.97 E23.15949
G1 X120.889 Y132.458 E23.25183
G1 X120.247 Y132.881 E23.34409
G1 X119.564 Y133.236 E23.43646
G1 X118.849 Y133.517 E23.52865
G1 X118.107 Y133.723 E23.62106
G1 X117.349 Y133.851 E23.7133
G1 X116.5 Y133.9 E23.81535
G1 X106.5 Y133.9 E25.01535
G1 X105.732 Y133.86 E25.10764
G1 X104.972 Y133.741 E25.19995
G1 X104.229 Y133.543 E25.29222
G1 X103.51 Y133.269 E25.38455
G1 X102.824 Y132.922 E25.47681
G1 X102.177 Y132.506 E25.56911
G1 X101.577 Y132.025 E25.66139
G1 X101.03 Y131.484 E25.75371
G1 X100.542 Y130.889 E25.84605
G1 X100.119 Y130.247 E25.93831
G1 X99.764 Y129.564 E26.03068
G1 X99.483 Y128.849 E26.12287
G1 X99.277 Y128.107 E26.21528
G1 X99.149 Y127.349 E26.30753
G1 X99.1 Y126.5 E26.40958
G1 X99.1 Y96.5 E30.00958
G1 X99.14 Y95.732 E30.10186
G1 X99.259 Y94.972 E30.19417
G1 X99.457 Y94.229 E30.28644
G1 X99.731 Y93.51 E30.37878
G1 X100.078 Y92.824 E30.47103
G1 X100.494 Y92.177 E30.56333
G1 X100.975 Y91.577 E30.65561
G0 F3600 X101.371 Y91.737
G1 F1800 X101.908 Y91.216 E30.7454
G1 X102.498 Y90.757 E30.8351
G1 X103.134 Y90.362 E30.92494
G1 X103.808 Y90.038 E31.01468
G1 X104.513 Y89.788 E31.10444
G1 X105.241 Y89.614 E31.19426
G1 X105.983 Y89.519 E31.28403
G1 X106.5 Y89.5 E31.34611
G1 X116.5 Y89.5 E32.54611
G1 X117.247 Y89.54 E32.63588
G1 X117.985 Y89.659 E32.72558
G1 X118.707 Y89.857 E32.81542
G1 X119.403 Y90.13 E32.90514
G1 X120.066 Y90.477 E32.99494
G1 X120.689 Y90.892 E33.08476
G1 X121.263 Y91.371 E33.17448
G1 X121.784 Y91.908 E33.26426
G1 X122.243 Y92.498 E33.35396
G1 X122.638 Y93.134 E33.44381
G1 X122.962 Y93.808 E33.53355
G1 X123.212 Y94.513 E33.62331
G1 X123.386 Y95.241 E33.71313
G1 X123.481 Y95.983 E33.80289
G1 X123.5 Y96.5 E33.86498
G1 X123.5 Y126.5 E37.46498
G1 X123.46 Y127.247 E37.55474
G1 X123.341 Y127.985 E37.64445
G1 X123.143 Y128.707 E37.73429
G1 X122.87 Y129.403 E37.824
G1 X122.523 Y130.066 E37.9138
G1 X122.108 Y130.689 E38.00363
G1 X121.629 Y131.263 E38.09334
G1 X121.092 Y131.784 E38.18313
G1 X120.502 Y132.243 E38.27283
G1 X119.866 Y132.638 E38.36267
G1 X119.192 Y132.962 E38.45241
G1 X118.487 Y133.212 E38.54217
G1 X117.759 Y133.386 E38.63199
G1 X117.017 Y133.481 E38.72176
G1 X116.5 Y133.5 E38.78384
G1 X106.5 Y133.5 E39.98384
G1 X105.753 Y133.46 E40.07361
G1 X105.015 Y133.341 E40.16331
G1 X104.293 Y133.143 E40.25315
G1 X103.597 Y132.87 E40.34287
G1 X102.934 Y132.523 E40.43266
G1 X102.311 Y132.108 E40.52249
G1 X101.737 Y131.629 E40.61221
G1 X101.216 Y131.092 E40.70199
G1 X100.757 Y130.502 E40.79169
G1 X100.362 Y129.866 E40.88153
G1 X100.038 Y129.192 E40.97127
G1 X99.788 Y128.487 E41.06104
G1 X99.614 Y127.759 E41.15086
G1 X99.519 Y127.017 E41.24062
G1 X99.5 Y126.5 E41.3027
G1 X99.5 Y96.5 E44.9027
G1 X99.54 Y95.753 E44.99247
G1 X99.659 Y95.015 E45.08218
G1 X99.857 Y94.293 E45.17202
G1 X100.13 Y93.597 E45.26173
G1 X100.477 Y92.934 E45.35153
G1 X100.892 Y92.311 E45.44136
G1 X101.371 Y91.737 E45.53107
G0 F3600 X101.765 Y91.902
G1 F1800 X102.299 Y91.409 E45.61828
G1 X102.884 Y90.979 E45.70541
G1 X103.513 Y90.615 E45.79262
G1 X104.178 Y90.322 E45.87982
G1 X104.871 Y90.104 E45.967
G1 X105.583 Y89.964 E46.05407
G1 X106.5 Y89.9 E46.16438
G1 X116.5 Y89.9 E47.36438
G1 X117.225 Y89.94 E47.45151
G1 X117.942 Y90.059 E47.53873
G1 X118.641 Y90.257 E47.62591
G1 X119.314 Y90.53 E47.71306
G1 X119.953 Y90.875 E47.8002
G1 X120.55 Y91.289 E47.88738
G1 X121.098 Y91.765 E47.97449
G1 X121.591 Y92.299 E48.0617
G1 X122.021 Y92.884 E48.14882
G1 X122.385 Y93.513 E48.23603
G1 X122.678 Y94.178 E48.32323
G1 X122.896 Y94.871 E48.41041
G1 X123.036 Y95.583 E48.49749
G1 X123.1 Y96.5 E48.60779
G1 X123.1 Y126.5 E52.20779
G1 X123.06 Y127.225 E52.29493
G1 X122.941 Y127.942 E52.38214
G1 X122.743 Y128.641 E52.46932
G1 X122.47 Y129.314 E52.55648
G1 X122.125 Y129.953 E52.64362
G1 X121.711 Y130.55 E52.7308
G1 X121.235 Y131.098 E52.8179
G1 X120.701 Y131.591 E52.90512
G1 X120.116 Y132.021 E52.99224
G1 X119.487 Y132.385 E53.07945
G1 X118.822 Y132.678 E53.16665
G1 X118.129 Y132.896 E53.25383
G1 X117.417 Y133.036 E53.3409
G1 X116.5 Y133.1 E53.45121
G1 X106.5 Y133.1 E54.65121
G1 X105.775 Y133.06 E54.73834
G1 X105.058 Y132.941 E54.82556
G1 X104.359 Y132.743 E54.91274
G1 X103.686 Y132.47 E54.99989
G1 X103.047 Y132.125 E55.08703
G1 X102.45 Y131.711 E55.17421
G1 X101.902 Y131.235 E55.26132
G1 X101.409 Y130.701 E55.34853
G1 X100.979 Y130.116 E55.43566
G1 X100.615 Y129.487 E55.52286
G1 X100.322 Y128.822 E55.61007
G1 X100.104 Y128.129 E55.69724
G1 X99.964 Y127.417 E55.78432
G1 X99.9 Y126.5 E55.89463
G1 X99.9 Y96.5 E59.49463
G1 X99.94 Y95.775 E59.58176
G1 X100.059 Y95.058 E59.66898
G1 X100.257 Y94.359 E59.75616
G1 X100.53 Y93.686 E59.84331
G1 X100.875 Y93.047 E59.93045
G1 X101.289 Y92.45 E60.01763
G1 X101.765 Y91.902 E60.10473
G0 F3600 X102.159 Y92.073
G1 F1800 X102.689 Y91.609 E60.18926
G1 X103.268 Y91.209 E60.27371
G1 X103.889 Y90.877 E60.35821
G1 X104.543 Y90.617 E60.44267
G1 X105.223 Y90.433 E60.5272
G1 X105.919 Y90.327 E60.61169
G1 X106.5 Y90.3 E60.68148
G1 X116.5 Y90.3 E61.88148
G1 X117.203 Y90.34 E61.96598
G1 X117.897 Y90.459 E62.05047
G1 X118.572 Y90.657 E62.13489
G1 X119.221 Y90.929 E62.21933
G1 X119.835 Y91.274 E62.30384
G1 X120.406 Y91.685 E62.38827
G1 X120.927 Y92.159 E62.47279
G1 X121.391 Y92.689 E62.55732
G1 X121.791 Y93.268 E62.64177
G1 X122.123 Y93.889 E62.72627
G1 X122.383 Y94.543 E62.81072
G1 X122.567 Y95.223 E62.89526
G1 X122.673 Y95.919 E62.97974
G1 X122.7 Y96.5 E63.04954
G1 X122.7 Y126.5 E66.64954
G1 X122.66 Y127.203 E66.73403
G1 X122.541 Y127.897 E66.81853
G1 X122.343 Y128.572 E66.90294
G1 X122.071 Y129.221 E66.98738
G1 X121.726 Y129.835 E67.0719
G1 X121.315 Y130.406 E67.15632
G1 X120.841 Y130.927 E67.24085
G1 X120.311 Y131.391 E67.32537
G1 X119.732 Y131.791 E67.40982
G1 X119.111 Y132.123 E67.49432
G1 X118.457 Y132.383 E67.57878
G1 X117.777 Y132.567 E67.66331
G1 X117.081 Y132.673 E67.7478
G1 X116.5 Y132.7 E67.81759
G1 X106.5 Y132.7 E69.01759
G1 X105.797 Y132.66 E69.10209
G1 X105.103 Y132.541 E69.18658
G1 X104.428 Y132.343 E69.271
G1 X103.779 Y132.071 E69.35544
G1 X103.165 Y131.726 E69.43995
G1 X102.594 Y131.315 E69.52438
G1 X102.073 Y130.841 E69.6089
G1 X101.609 Y130.311 E69.69343
G1 X101.209 Y129.732 E69.77788
G1 X100.877 Y129.111 E69.86238
G1 X100.617 Y128.457 E69.94683
G1 X100.433 Y127.777 E70.03137
G1 X100.327 Y127.081 E70.11585
G1 X100.3 Y126.5 E70.18565
G1 X100.3 Y96.5 E73.78565
G1 X100.34 Y95.797 E73.87014
G1 X100.459 Y95.103 E73.95464
G1 X100.657 Y94.428 E74.03905
G1 X100.929 Y93.779 E74.12349
G1 X101.274 Y93.165 E74.20801
G1 X101.685 Y92.594 E74.29243
G1 X102.159 Y92.073 E74.37696
G0 F3600 X102.553 Y92.251
G1 F1800 X103.078 Y91.817 E74.4587
G1 X103.65 Y91.448 E74.54038
G1 X104.262 Y91.149 E74.62211
G1 X104.904 Y90.924 E74.70375
G1 X105.569 Y90.775 E74.78553
G1 X106.5 Y90.7 E74.89761
G1 X116.5 Y90.7 E76.09761
G1 X117.18 Y90.74 E76.17935
G1 X117.85 Y90.859 E76.26101
G1 X118.502 Y91.056 E76.34274
G1 X119.126 Y91.328 E76.42443
G1 X119.714 Y91.672 E76.50618
G1 X120.258 Y92.082 E76.58792
G1 X120.749 Y92.553 E76.66957
G1 X121.183 Y93.078 E76.7513
G1 X121.552 Y93.65 E76.83299
G1 X121.851 Y94.262 E76.91472
G1 X122.076 Y94.904 E76.99636
G1 X122.225 Y95.569 E77.07814
G1 X122.3 Y96.5 E77.19022
G1 X122.3 Y126.5 E80.79022
G1 X122.26 Y127.18 E80.87196
G1 X122.141 Y127.85 E80.95362
G1 X121.944 Y128.502 E81.03535
G1 X121.672 Y129.126 E81.11704
G1 X121.328 Y129.714 E81.19878
G1 X120.918 Y130.258 E81.28053
G1 X120.447 Y130.749 E81.36218
G1 X119.922 Y131.183 E81.44391
G1 X119.35 Y131.552 E81.5256
G1 X118.738 Y131.851 E81.60733
G1 X118.096 Y132.076 E81.68897
G1 X117.431 Y132.225 E81.77075
G1 X116.5 Y132.3 E81.88283
G1 X106.5 Y132.3 E83.08283
G1 X105.82 Y132.26 E83.16457
G1 X105.15 Y132.141 E83.24623
G1 X104.498 Y131.944 E83.32796
G1 X103.874 Y131.672 E83.40965
G1 X103.286 Y131.328 E83.49139
G1 X102.742 Y130.918 E83.57314
G1 X102.251 Y130.447 E83.65478
G1 X101.817 Y129.922 E83.73652
G1 X101.448 Y129.35 E83.81821
G1 X101.149 Y128.738 E83.89994
G1 X100.924 Y128.096 E83.98158
G1 X100.775 Y127.431 E84.06336
G1 X100.7 Y126.5 E84.17544
G1 X100.7 Y96.5 E87.77544
G1 X100.74 Y95.82 E87.85718
G1 X100.859 Y95.15 E87.93884
G1 X101.056 Y94.498 E88.02057
G1 X101.328 Y93.874 E88.10226
G1 X101.672 Y93.286 E88.184
G1 X102.082 Y92.742 E88.26575
G1 X102.553 Y92.251 E88.34739
G0 F3600 X102.945 Y92.435
G1 F1800 X103.465 Y92.034 E88.42619
G1 X104.029 Y91.698 E88.50497
G1 X104.631 Y91.434 E88.58385
G1 X105.26 Y91.244 E88.6627
G1 X105.907 Y91.133 E88.74148
G1 X106.5 Y91.1 E88.81275
G1 X116.5 Y91.1 E90.01275
G1 X117.156 Y91.14 E90.09161
G1 X117.802 Y91.259 E90.17044
G1 X118.429 Y91.456 E90.2493
G1 X119.027 Y91.728 E90.32814
G1 X119.588 Y92.07 E90.40698
G1 X120.103 Y92.478 E90.48583
G1 X120.565 Y92.945 E90.56465
G1 X120.966 Y93.465 E90.64345
G1 X121.302 Y94.029 E90.72223
G1 X121.566 Y94.631 E90.80112
G1 X121.756 Y95.26 E90.87996
G1 X121.867 Y95.907 E90.95874
G1 X121.9 Y96.5 E91.03001
G1 X121.9 Y126.5 E94.63001
G1 X121.86 Y127.156 E94.70887
G1 X121.741 Y127.802 E94.7877
G1 X121.544 Y128.429 E94.86656
G1 X121.272 Y129.027 E94.9454
G1 X120.93 Y129.588 E95.02424
G1 X120.522 Y130.103 E95.10309
G1 X120.055 Y130.565 E95.18192
G1 X119.535 Y130.966 E95.26071
G1 X118.971 Y131.302 E95.33949
G1 X118.369 Y131.566 E95.41838
G1 X117.74 Y131.756 E95.49722
G1 X117.093 Y131.867 E95.576
G1 X116.5 Y131.9 E95.64727
G1 X106.5 Y131.9 E96.84727
G1 X105.844 Y131.86 E96.92613
G1 X105.198 Y131.741 E97.00496
G1 X104.571 Y131.544 E97.08383
G1 X103.973 Y131.272 E97.16266
G1 X103.412 Y130.93 E97.2415
G1 X102.897 Y130.522 E97.32035
G1 X102.435 Y130.055 E97.39918
G1 X102.034 Y129.535 E97.47798
G1 X101.698 Y128.971 E97.55676
G1 X101.434 Y128.369 E97.63564
G1 X101.244 Y127.74 E97.71448
G1 X101.133 Y127.093 E97.79326
G1 X101.1 Y126.5 E97.86453
G1 X101.1 Y96.5 E101.46453
G1 X101.14 Y95.844 E101.5434
G1 X101.259 Y95.198 E101.62222
G1 X101.456 Y94.571 E101.70109
G1 X101.728 Y93.973 E101.77992
G1 X102.07 Y93.412 E101.85876
G1 X102.478 Y92.897 E101.93761
G1 X102.945 Y92.435 E102.01644
G0 F3600 X103.336 Y92.629
G1 F1800 X103.85 Y92.26 E102.09237
G1 X104.406 Y91.96 E102.16818
G1 X104.995 Y91.732 E102.24397
G1 X105.609 Y91.58 E102.31987
G1 X106.5 Y91.5 E102.42722
G1 X116.5 Y91.5 E103.62722
G1 X117.131 Y91.54 E103.7031
G1 X117.752 Y91.659 E103.77897
G1 X118.352 Y91.856 E103.85475
G1 X118.924 Y92.127 E103.93071
G1 X119.456 Y92.467 E104.00647
G1 X119.941 Y92.873 E104.08237
G1 X120.371 Y93.336 E104.1582
G1 X120.74 Y93.85 E104.23412
G1 X121.04 Y94.406 E104.30994
G1 X121.268 Y94.995 E104.38573
G1 X121.42 Y95.609 E104.46163
G1 X121.5 Y96.5 E104.56898
G1 X121.5 Y126.5 E108.16898
G1 X121.46 Y127.131 E108.24485
G1 X121.341 Y127.752 E108.32073
G1 X121.144 Y128.352 E108.39651
G1 X120.873 Y128.924 E108.47247
G1 X120.533 Y129.456 E108.54823
G1 X120.127 Y129.941 E108.62413
G1 X119.664 Y130.371 E108.69996
G1 X119.15 Y130.74 E108.77588
G1 X118.594 Y131.04 E108.8517
G1 X118.005 Y131.268 E108.92749
G1 X117.391 Y131.42 E109.00339
G1 X116.5 Y131.5 E109.11074
G1 X106.5 Y131.5 E110.31074
G1 X105.869 Y131.46 E110.38661
G1 X105.248 Y131.341 E110.46249
G1 X104.648 Y131.144 E110.53827
G1 X104.076 Y130.873 E110.61423
G1 X103.544 Y130.533 E110.68999
G1 X103.059 Y130.127 E110.76589
G1 X102.629 Y129.664 E110.84171
G1 X102.26 Y129.15 E110.91764
G1 X101.96 Y128.594 E110.99346
G1 X101.732 Y128.005 E111.06925
G1 X101.58 Y127.391 E111.14515
G1 X101.5 Y126.5 E111.2525
G1 X101.5 Y96.5 E114.8525
G1 X101.54 Y95.869 E114.92837
G1 X101.659 Y95.248 E115.00425
G1 X101.856 Y94.648 E115.08003
G1 X102.127 Y94.076 E115.15598
G1 X102.467 Y93.544 E115.23175
G1 X102.873 Y93.059 E115.30765
G1 X103.336 Y92.629 E115.38347
G0 F3600 X103.725 Y92.831
G1 F1800 X104.232 Y92.498 E115.45626
G1 X104.778 Y92.234 E115.52904
G1 X105.354 Y92.045 E115.60179
G1 X105.95 Y91.933 E115.67456
G1 X106.5 Y91.9 E115.74068
G1 X116.5 Y91.9 E116.94068
G1 X117.105 Y91.94 E117.01344
G1 X117.699 Y92.059 E117.08613
G1 X118.273 Y92.255 E117.15892
G1 X118.816 Y92.526 E117.23174
G1 X119.319 Y92.865 E117.30453
G1 X119.772 Y93.267 E117.37721
G1 X120.169 Y93.725 E117.44994
G1 X120.502 Y94.232 E117.52273
G1 X120.766 Y94.778 E117.59551
G1 X120.955 Y95.354 E117.66825
G1 X121.067 Y95.95 E117.74103
G1 X121.1 Y96.5 E117.80714
G1 X121.1 Y126.5 E121.40714
G1 X121.06 Y127.105 E121.4799
G1 X120.941 Y127.699 E121.5526
G1 X120.745 Y128.273 E121.62538
G1 X120.474 Y128.816 E121.69821
G1 X120.135 Y129.319 E121.771
G1 X119.733 Y129.772 E121.84368
G1 X119.275 Y130.169 E121.91641
G1 X118.768 Y130.502 E121.9892
G1 X118.222 Y130.766 E122.06198
G1 X117.646 Y130.955 E122.13472
G1 X117.05 Y131.067 E122.20749
G1 X116.5 Y131.1 E122.27361
G1 X106.5 Y131.1 E123.47361
G1 X105.895 Y131.06 E123.54637
G1 X105.301 Y130.941 E123.61907
G1 X104.727 Y130.745 E123.69185
G1 X104.184 Y130.474 E123.76468
G1 X103.681 Y130.135 E123.83746
G1 X103.228 Y129.733 E123.91014
G1 X102.831 Y129.275 E123.98288
G1 X102.498 Y128.768 E124.05567
G1 X102.234 Y128.222 E124.12844
G1 X102.045 Y127.646 E124.20119
G1 X101.933 Y127.05 E124.27396
